X: 20993
T: Julia Delaney's
R: reel
M: 4/4
K: Ddorian
|:d=cAG F2DF|E2CE FEFA|d=cAG F2EF|Add^c defe|
d=cAG F2DF|E2CE FEFA|dBAG F2EF|1 Add^c d4:|2 Add^c d2de||
|:fede fagf|e=cgc acgc|fede fagf|edcB Adde|
fede fagf|ecgc acgc|fedf edcB|Add^c d2de:|

